X:1
% arranged by ABC Arranger (C) N Jennings 1997
T:Lark in the Morning, The
M:6/8
R:jig
K:GMaj
"G"dB \
|: "D7"AFA "D7"AFA| "G"BGB "G"BdB| "D7"AFA "D7"AFA| "D"fed "G"BdB \
"D7" AFA "D7"AFA| "G"BGB "G"BAB| "D"def "D7"afe| "D"fed "G"BdB:|
"D"def "D7" a2 a| "Bm"baf "D7"afe| "D"def "C"g2 e| "D"fed "G"BAB \
 "D"def "D7"aba | "Bm"baf "D7"a2 f| "G"gag "D7"faf| "Em"edB "G"BAB:|
 "D".d2 f "D7"fef | "D7"fef "D7"fef| "D".d2 f "D7"fef| "Em"edB "G"BAB \
 "D".d2 f "D7"fef | "D7"fef "D"fed| "G"gag "D7"faf| "Em"edB "Bm"BAF:|
 "D7"Add "D"fdd| "Em"ede "Bm"fdB| "D7"Add "D"fdd| "Em"edB "Bm"BAF \
  "D7"Add "D"fdd| "Em"ede "D" fed| "G"gag "D7"faf| "Em"edB "Bm"BAF:|
